!!!COM: Lassus, Orlandus
!!!CDT: 1532-1594/06/14
!!!OPR: Geistliche Psalmen mit dreyen Stimmen
!!!ONM: 11
!!!OTL@@LA: Salvum me fac Deus
!!!OTL-incipit@@DE: Hilff lieber Herr die heilig frommen
**kern	**text	**kern	**text	**kern	**text
*staff3	*staff3	*staff2	*staff2	*staff1	*staff1
*Ivox	*	*Ivox	*	*Ivox	*
*I"Bassus	*	*I"Tenor	*	*I"Cantus	*
*I'B	*	*I'T	*	*I'C	*
*clefC3	*	*clefC1	*	*clefG2	*
*k[b-]	*	*k[b-]	*	*k[b-]	*
*g:dor	*	*g:dor	*	*g:dor	*
*M2/1	*	*M2/1	*	*M2/1	*
*met(C|)	*	*met(C|)	*	*met(C|)	*
*MM180	*	*MM180	*	*MM180	*
=1	=1	=1	=1	=1	=1
*xywh-#137:106,41,2710,539	*	*xywh-#81:150,74,2671,534	*	*xywh-#21:105,78,2727,509	*
!	!	!	!	!LO:TX:a:i:t=(c.f.)	!
2r	.	2r	.	1g	Hilff
2g	Hilff	2b-	Hilff	.	.
2.e-	lie-	2.g	lie-	2b-	lie-
.	.	.	.	2b-	-ber
4g	-ber	4b-	-ber	.	.
=2	=2	=2	=2	=2	=2
4f	Herr	2a	Herr/	2cc	Herr/
4F	die	.	.	.	.
8G	hei-	2g	die	2b-	die
8A	.	.	.	.	.
8B-	.	.	.	.	.
8c	.	.	.	.	.
!! cadence start
4d	.	4f#	hei-	2a	hei-
4d	-lig	4f#	-lig	.	.
2e-	from̃-	2.g	from-	2g	-lig
=3	=3	=3	=3	=3	=3
1d	-en/	.	.	1a	from-
.	.	8f#i	.	.	.
.	.	8e	.	.	.
.	.	2f#i	.	.	.
2r	.	2g	-men	1g	-men/
!! cadence end; ultima=g
2e-	ha-	4r	.	.	.
.	.	2b-	ha-	.	.
=4	=4	=4	=4	=4	=4
2d	-ben	.	.	2r	.
.	.	4a	-ben	.	.
2B-	so	2dd	so	2b-	Ha-
*xywh-#137:101,541,2715,464	*	*	*	*	*
2r	.	2cc	gentz-	2a	-ben
2d	ha-	2a	-lich	2f	so
=5	=5	=5	=5	=5	=5
*	*	*xywh-#81:130,593,2683,412	*	*	*
2c	-ben	4r	.	2g	gentz-
.	.	4e	ha-	.	.
4A	so	4e	-ben	2cc	-lich
4F	gentz-	4a	so	.	.
*	*	*	*	*xywh-#21:100,587,2731,415	*
4G	-lich	2d	gentz-	2b-	ab-
4.G	ab-	.	.	.	.
.	.	4g	-lich	2b-	-ge-
8A	.	.	.	.	.
8B-	.	4g	ab-	.	.
8c	.	.	.	.	.
=6	=6	=6	=6	=6	=6
!! cadence start
4d	.	4f#	-ge-	1a	-nom-
4c	-ge-	2g	-nom-	.	.
2d	-nom-	.	.	.	.
.	.	4f#X	.	.	.
2G	-en	2g	-men/	1g	-men/
!! cadence end; ultima=g
2B	es	2d	Es	.	.
=7	=7	=7	=7	=7	=7
2c	ist	1e	ist	2r	.
2c	hin	.	.	2g	Es
4r	.	2f	hin	2a	ist
4A	es	.	.	.	.
8G	ist	2g	all	2b-	hin
8A	.	.	.	.	.
8B-	.	.	.	.	.
8c	.	.	.	.	.
=8	=8	=8	=8	=8	=8
*xywh-#137:93,958,2717,459	*	*	*	*	*
4d	.	2f	auff-	2a	all
4A	hin	.	.	.	.
4c	all	2.e	-rich-	2g	auff-
4G	auff-	.	.	.	.
!! cadence start
2B-	-rich-	.	.	2.f	-rich-
.	.	4d	.	.	.
2B-	-tig-	1d	.	.	.
.	.	.	.	8e	.
.	.	.	.	8d	.
=9	=9	=9	=9	=9	=9
1A	-keit/	.	.	2e	.
.	.	2c#i	-tig-	2e	-tig-
2r	.	2d	-keit/	1d	-keit/
!! cadence end; ultima=d
2f	das	2a	Das	.	.
=10	=10	=10	=1s	=10	=10
2g	auch	2b-	auch	2r	.
2f	schier	2cc	schir	2a	das
2r	.	2dd	un-	2b-	auch
4f	un-	2a	-ter	2cc	schir
4f	-ter	.	.	.	.
=11	=11	=11	=11	=11	=11
*	*	*xywh-#81:112,991,2698,437	*	*xywh-#21:96,998,2734,404	*
4B-	men-	1b-	men-	2dd	un-
4.G	-schen	.	.	.	.
.	.	.	.	2dd	-der
8A	.	.	.	.	.
4B-	.	.	.	.	.
!! cadence start
2c	kin-	2g	-schen	2ee-i	men-
2B-	-den/	2.b-	kin-	2dd	-schen
=12	=12	=12	=12	=12	=12
2r	.	.	.	1cc	kin-
.	.	8a	.	.	.
.	.	8g	.	.	.
2f	kein	2a	.	.	.
1g	trew	2b-	-den/	2b-	-den/
!! cadence end; ultima=b-
.	.	2b-	Kein	2dd	kein
=13	=13	=13	=13	=13	=13
*xywh-#137:86,1391,2717,440	*	*	*	*	*
2r	.	2a	trew	2cc	trew
2g	kein	4r	.	2b-	und
.	.	4dd	kein	.	.
2f	trew	2a	trew/	2.cc	glaub
4e	und	4g	und	.	.
2f	glaub	2a	glaub	4cc	mehr
=14	=14	=14	=14	=14	=14
!! cadence start
.	.	.	.	2dd	ist
4g	mehr	4b-	mehr	.	.
4e	ist	4g	ist	2cc	zu
4f	zu	4a	zu	.	.
4g	fin-	2dd	fin-	1b-	fin-
!! cadence end; ultima=b-
4.G	-den/	.	.	.	.
.	.	2d	-den/	.	.
8A	.	.	.	.	.
8B-	.	.	.	.	.
8c	.	.	.	.	.
=15	=15	=15	=15	=15	=15
4d	.	2r	.	0a	-den/
4d	in	.	.	.	.
2f	die-	2d	In	.	.
*	*	*xywh-#81:105,1395,2711,444	*	*	*
2d	-ser	2f	die-	.	.
4c#	fehr-	2e	-ser	.	.
4c#	-lich	.	.	.	.
=16	=16	=16	=16	=16	=16
2.d	bö-	1f	fehr-	2r	.
.	.	.	.	2a	in
4d	-sen	.	.	.	.
*xywh-#137:81,1791,2737,492	*	*	*	*	*
2G	zeit/	2d	-lich	2b-	die-
2d	in	1f	bö-	2a	-ser
=17	=17	=17	=17	=17	=17
2B-	die-	.	.	2dd	fehr-
2f	-ser	2.a	-sen	2cc	-lich
*	*	*	*	*xywh-#21:96,1407,2718,409	*
!! cadence start
2g	fehr-	.	.	2.b-	bö-
.	.	4g	.	.	.
2e-	-lich	2.g	.	.	.
.	.	.	.	8a	.
.	.	.	.	8g	.
=18	=18	=18	=18	=18	=18
2.d	bö-	.	.	2a	.
.	.	8f#i	.	.	.
.	.	8e	.	.	.
.	.	2f#i	.	2a	-ser
4d	-ser	.	.	.	.
2G	zeit.	4g	zeit	1g	zeit/
!! cadence end; ultima=g
.	.	4d	in	.	.
4r	.	2e-	die-	.	.
*	*ij	*	*	*	*
4c	in	.	.	.	.
=19	=19	=19	=19	=19	=19
2.e-	die-	2c	-ser	4r	.
.	.	.	.	4g	in
.	.	4g	fehr-	4b-	die-
4e-	-ser	4g	-lich	4b-	-ser
!! cadence start
4c	fehr-	2g	bö-	4ee-i	fehr-
4B	-lich	.	.	4dd	-lich
4c	bö-	2e-	-sen	4g	bö-
4c	-ser	.	.	4cc	-ser
=20	=20	=20	=20	=20	=20
0Gll	zeit.	0dll	zeit.	0bll	zeit.
!! cadence end; ultima=g
*	*Xij	*	*	*	*
==	==	==	==	==	==
*-	*-	*-	*-	*-	*-
!!!RDF**kern: l = terminal long
!!!RDF**kern: i = editorial accidental
!!!AGN: Psalm; Tricinium
!!!LIB: Ulenberg, Caspar
!!!LIB-CDT: 1548/12/24-1617/02/16
!!!YOR: https://mdz-nbn-resolving.de/details:bsb00075346
!!!YOO: München, Bayerische Staatsbibliothek
!!!URL-scan: https://www.digitale-sammlungen.de/de/view/bsb00075346?page=21 Cantus
!!!URL-scan: https://www.digitale-sammlungen.de/de/view/bsb00075346?page=81 Tenor
!!!URL-scan: https://www.digitale-sammlungen.de/de/view/bsb00075346?page=137 Bassus
!!!IIIF: https://api.digitale-sammlungen.de/iiif/presentation/v2/bsb00075346/manifest
!!!EED: Wolfgang Drescher
!!!END: 2023/02/26
!!!ENC: Wolfgang Drescher
!!!EEV: 2023/02/27
!!!title: @{ONM}. @{OTL} / <i>@{OTL-incipit@@DE}</i>